X: 232165
T: Wild Rose (The)
C: Joe Liddy
Z: BB
S: "The Leitrim Fiddler" (Dublin 1981)
L: 1/8
M: 4/4
R: reel
Q: 1/4 = 170
K: G
dc | BGGF GFDE | FGAF GABc | d2 fd cdBc | d2 gf gfdc |
BGGF GFDE | FGAF GABc | dggf gfdc | BGAF G2 :|
Bc | dg (3agf gfdc | BGAF GABc | dBfB gdfd | gfdB cdBc |
dgfa gfdf | gfdc BGFG | Bcde fdcA | GBAF G2 ||
ef | g2 gf dcBc | dGAB GFDF | GABc defg | agfa g2 ga |
bgaf gfdB | cfdc BGBc | dgaf gfdc | AGFD G4 ||
%%%%%%%%%%%%%%%%
